X: 12563
T: Farewell To Muswell Hill
R: reel
M: 4/4
K: Gmajor
"G"G,B,DE GABd|"Em"e3 d edBe|"Am7"d3 B dBAc|"Bm"B2 BA BAFA|
"G"GEDE GABd|"Em"(3efe ed edBe|"Am7"(3ded dB dBAc|"Dsus"BAGE DB,A,B,|
"G"G,B,DE GABd|"Em"ez zd edBe|"Am7"d2 dB dBAc|"Bm"B2 BA BAFA|
"G"GEDE GABd|"Em"(3efe ed efga|"G"bged gedB|"D"dBAB "G"G2 z2|
"Em"E2 GE AEGE|(3EEE GE AEGD|"D"D2 ED FDED|(3DED ED FDED|
"Em"E2 GE AEGE|(3EFE GE AEGE|"D"D2 ED FDED|"Bm7"F2 GF AFGF|
"Em"E2 GE AEGE-|E2 GE AEGE|"D"(3DDD ED FDED|D2 ED FDED|
"Em"E2 GE AE"G"G2-|G2 BG cG"Bm"B2-|B2 dB "Am7"eBde|"D"fedf "G"e2 z2||

